X:97
%%NRChange 2016-08-16
T: Vals fr\oa Romsdal
O: Norway
C: etter Hilmar Alexandersen
R: Waltz
K: Dm
M: 3/4
Q: 1/4=160
L: 1/4
P: A
V: 1
"Dm"f3/ a/g/f/ | efd | "A7"^cAc | "Dm"d>d d | AGA | "A7"^c>cc | AGA | "Dm"d>d d |
V: 2
L: 1/4
d3/ f/e/d/ | ^cdA | AEA | F>F F | FEF | A>AA | E^CE | F>F F |
[V:1]"Dm"f3/ a/g/f/ | efd | "A7"^cAc | "Dm"d>d d | AGA | "A7"fe^c | "Dm"d>d d | d2 A :|
[V:2]a3 | gaf | e3 | f3 | fef | age | f>d B | A2 A :| 
P: B
[V:1]"Dm"f2f | "A7"e2A | "Dm"f2f | "A7"e z A/^c/ | "Dm"d>d d | d^cd | "A7"e2 f/d/ | e2 A|
[V:2]d2 d | ^c2 A | d2 d | ^cz A | A>A A | A3 | ^c2 d/B/ | ^c2 A |
[V:1]"Dm"f2f | "A7"e2A | "Dm"f2f | "A7"e2 f/g/ | "Dm"afd | "A7"ed^c | "Dm"d>d d | d2 A :|
[V:2]a2 a | g2 e | d2 d | ^c2 A | dAG | AEA | F>F F | F2 A :|

